packages/core/src/svgs/tokens/branded/TRAC.svg

<svg width="24" height="24" viewBox="0 0 24 24" fill="none" xmlns="http://www.w3.org/2000/svg">
<path d="M11.9999 2V6.97497C11.1554 6.97508 10.3246 7.18803 9.58421 7.59411C8.8438 8.0002 8.21767 8.58635 7.76364 9.29839C7.30964 10.0105 7.0424 10.8254 6.98662 11.668C6.93085 12.5106 7.08834 13.3539 7.44453 14.1195C7.80073 14.8851 8.34415 15.5488 9.02459 16.0488C9.70496 16.549 10.5005 16.8696 11.3377 16.981C12.1748 17.0924 13.0264 16.9911 13.8139 16.6863C14.6016 16.3816 15.2997 15.8833 15.8436 15.2374L19.6499 18.4374C18.7135 19.5552 17.5429 20.4537 16.2211 21.0693C14.8991 21.6848 13.4581 22.0026 11.9999 22C9.34781 22 6.80427 20.9463 4.92892 19.0709C3.05355 17.1957 2 14.6521 2 11.9999C2 9.34783 3.05355 6.80427 4.92892 4.92892C6.80427 3.05355 9.34781 2 11.9999 2ZM16.7186 13.7374L21.3875 15.4624C21.1811 16.0063 20.9374 16.5313 20.6375 17.0374L16.3437 14.5312C16.4917 14.2781 16.6171 14.0126 16.7186 13.7374ZM21.8436 10.2625C21.9499 10.825 22 11.4063 22 11.9999H17.0249C17.0249 11.7 16.9999 11.4125 16.9499 11.1249L21.8499 10.2625H21.8436ZM18.4562 4.36873C18.9061 4.74373 19.3124 5.15623 19.6874 5.60622L15.8625 8.78746C15.6767 8.56185 15.4718 8.35274 15.25 8.16247L18.4562 4.36873Z" fill="url(#paint0_linear_364_6805)"/>
<defs>
<linearGradient id="paint0_linear_364_6805" x1="4.06785" y1="6.56783" x2="20.0499" y2="16.7214" gradientUnits="userSpaceOnUse">
<stop stop-color="#4CCB88"/>
<stop offset="1" stop-color="#30C7B4"/>
</linearGradient>
</defs>
</svg>

<svg xmlns="http://www.w3.org/2000/svg" width="24" height="24" fill="none" viewBox="0 0 24 24">
    <path fill="url(#TRAC__a)" d="M12 2v4.975a5.025 5.025 0 1 0 3.844 8.262l3.806 3.2A9.96 9.96 0 0 1 12 22a10 10 0 0 1 0-20m4.719 11.737 4.668 1.725a10 10 0 0 1-.75 1.575l-4.293-2.506a5 5 0 0 0 .375-.794m5.125-3.475Q22 11.109 22 12h-4.975c0-.3-.025-.588-.075-.875l4.9-.863zM18.456 4.37c.45.375.856.787 1.231 1.237l-3.825 3.181a5 5 0 0 0-.612-.625z"/>
    <defs>
        <linearGradient id="TRAC__a" x1="4.068" x2="20.05" y1="6.568" y2="16.721" gradientUnits="userSpaceOnUse">
            <stop stop-color="#4CCB88"/>
            <stop offset="1" stop-color="#30C7B4"/>
        </linearGradient>
    </defs>
</svg>
